bundle/image/pages/result/profile/img/star.svg

<svg width="20" height="19" viewBox="0 0 20 19" fill="none" xmlns="http://www.w3.org/2000/svg">
<path d="M10.0901 0L13.0401 5.97L19.6301 6.92001L14.8601 11.57L15.9801 18.13L10.0901 15.03L4.20007 18.13L5.33008 11.57L0.560059 6.92001L7.15009 5.97L10.0901 0Z" fill="black"/>
</svg>

<svg width="20" height="19" fill="none" xmlns="http://www.w3.org/2000/svg"><path d="m10.09 0 2.95 5.97 6.59.95-4.77 4.65 1.12 6.56-5.89-3.1-5.89 3.1 1.13-6.56L.56 6.92l6.59-.95L10.09 0z" fill="#000"/></svg>
